common/resources/fonts/svg/link.svg

<?xml version="1.0" encoding="UTF-8" standalone="no"?>
<svg width="1024px" height="1024px" viewBox="0 0 1024 1024" version="1.1" xmlns="http://www.w3.org/2000/svg" xmlns:xlink="http://www.w3.org/1999/xlink">
    <!-- Generator: Sketch 3.7.1 (28215) - http://www.bohemiancoding.com/sketch -->
    <title>link</title>
    <desc>Created with Sketch.</desc>
    <defs></defs>
    <g id="Page-1" stroke="none" stroke-width="1" fill="none" fill-rule="evenodd">
        <g id="link" fill="#000000">
            <path d="M451.704132,616.084241 C440.521154,616.084241 429.341537,611.819418 420.810211,603.288092 C340.879227,523.355427 340.879227,393.295129 420.810211,313.362464 L582.127394,152.04528 C620.85024,113.324115 672.330586,92 727.089368,92 C781.84815,92 833.330177,113.324115 872.053022,152.0436 C951.982326,231.976265 951.982326,362.036563 872.053022,441.969228 L798.312585,515.709665 C781.249932,532.772318 753.589076,532.772318 736.524743,515.709665 C719.46377,498.648693 719.46377,470.984476 736.524743,453.921823 L810.26518,380.181386 C856.126311,334.318574 856.126311,259.694254 810.26518,213.831442 C788.048779,191.615041 758.50925,179.380141 727.089368,179.380141 C695.669486,179.380141 666.131637,191.615041 643.913556,213.833123 L482.596372,375.148626 C436.733561,421.011437 436.733561,495.637438 482.596372,541.50025 C499.659025,558.561222 499.657345,586.225439 482.596372,603.288092 C474.068407,611.817738 462.883749,616.084241 451.704132,616.084241 L451.704132,616.084241 Z M296.910212,932.193665 C242.14975,932.193665 190.667723,910.869549 151.948238,872.150065 C72.017254,792.2174 72.017254,662.157101 151.948238,582.224437 L225.686995,508.48568 C242.749648,491.424707 270.413864,491.424707 287.474837,508.48568 C304.53749,525.546653 304.53749,553.210869 287.474837,570.273522 L213.73608,644.012279 C167.873269,689.87509 167.873269,764.501092 213.73608,810.363903 C235.950801,832.578623 265.49033,844.813524 296.910212,844.813524 C328.330094,844.813524 357.867943,832.578623 380.087704,810.360542 L541.404888,649.045039 C587.266019,603.182228 587.266019,528.556226 541.404888,482.693415 C524.342235,465.630762 524.343915,437.968226 541.404888,420.905573 C558.46586,403.8446 586.130077,403.8446 603.19273,420.907253 C683.122034,500.838237 683.122034,630.898536 603.19441,710.831201 L441.875546,872.148384 C403.15102,910.87123 351.668994,932.193665 296.910212,932.193665 L296.910212,932.193665 Z" id="Shape"></path>
        </g>
    </g>
</svg>

<svg width="1024" height="1024" viewBox="0 0 1024 1024">
    <path d="M451.704 616.084c-11.183 0-22.362-4.265-30.894-12.796-79.93-79.933-79.93-209.993 0-289.926l161.317-161.317C620.85 113.325 672.331 92 727.09 92c54.76 0 106.241 21.324 144.964 60.044 79.93 79.932 79.93 209.993 0 289.925l-73.74 73.74c-17.063 17.063-44.724 17.063-61.788 0-17.061-17.06-17.061-44.725 0-61.787l73.74-73.74c45.861-45.863 45.861-120.488 0-166.35-22.216-22.217-51.756-34.452-83.176-34.452s-60.957 12.235-83.175 34.453L482.596 375.15c-45.862 45.862-45.862 120.488 0 166.351 17.063 17.061 17.061 44.725 0 61.788-8.528 8.53-19.712 12.796-30.892 12.796zM296.91 932.194c-54.76 0-106.242-21.324-144.962-60.044-79.93-79.933-79.93-209.993 0-289.926l73.739-73.738c17.063-17.061 44.727-17.061 61.788 0 17.062 17.06 17.062 44.725 0 61.788l-73.739 73.738c-45.863 45.863-45.863 120.49 0 166.352 22.215 22.215 51.754 34.45 83.174 34.45 31.42 0 60.958-12.235 83.178-34.453l161.317-161.316c45.861-45.863 45.861-120.489 0-166.352-17.063-17.062-17.061-44.725 0-61.787 17.06-17.061 44.725-17.061 61.788.001 79.929 79.931 79.929 209.992.001 289.924L441.876 872.148c-38.725 38.723-90.207 60.046-144.966 60.046z" fill-rule="evenodd"/>
</svg>
